common/src/main/resources/glyphs/plugins/resharper/PsiHtml/HtmlTagId.svg

<svg xmlns="http://www.w3.org/2000/svg" width="16" height="16" fill="#9575CD" data-big="true" viewBox="0 0 24 24"><path d="M3 5a2 2 0 0 1 2-2h14a2 2 0 0 1 2 2v14a2 2 0 0 1-2 2H5a2 2 0 0 1-2-2zm4 13h2l.35-2h4L13 18h2l.35-2h2l.36-2h-2l.7-4h2l.35-2h-2l.36-2h-2l-.36 2h-4l.36-2h-2l-.36 2h-2l-.35 2h2l-.7 4h-2l-.36 2h2zm3.41-8h4l-.7 4h-4z"/></svg>

<!--
  - The MIT License (MIT)
  -
  - Copyright (c) 2015-2024 Elior "Mallowigi" Boukhobza
  -
  - Permission is hereby granted, free of charge, to any person obtaining a copy
  - of this software and associated documentation files (the "Software"), to deal
  - in the Software without restriction, including without limitation the rights
  - to use, copy, modify, merge, publish, distribute, sublicense, and/or sell
  - copies of the Software, and to permit persons to whom the Software is
  - furnished to do so, subject to the following conditions:
  -
  - The above copyright notice and this permission notice shall be included in all
  - copies or substantial portions of the Software.
  -
  - THE SOFTWARE IS PROVIDED "AS IS", WITHOUT WARRANTY OF ANY KIND, EXPRESS OR
  - IMPLIED, INCLUDING BUT NOT LIMITED TO THE WARRANTIES OF MERCHANTABILITY,
  - FITNESS FOR A PARTICULAR PURPOSE AND NONINFRINGEMENT. IN NO EVENT SHALL THE
  - AUTHORS OR COPYRIGHT HOLDERS BE LIABLE FOR ANY CLAIM, DAMAGES OR OTHER
  - LIABILITY, WHETHER IN AN ACTION OF CONTRACT, TORT OR OTHERWISE, ARISING FROM,
  - OUT OF OR IN CONNECTION WITH THE SOFTWARE OR THE USE OR OTHER DEALINGS IN THE
  - SOFTWARE.
  -->


<svg data-big="true" xmlns="http://www.w3.org/2000/svg" version="1.1" width="16px" height="16px" fill="#9575CD"
     viewBox="0 0 24 24">
  <path
    d="M3,5A2,2 0 0,1 5,3H19A2,2 0 0,1 21,5V19A2,2 0 0,1 19,21H5C3.89,21 3,20.1 3,19V5M7,18H9L9.35,16H13.35L13,18H15L15.35,16H17.35L17.71,14H15.71L16.41,10H18.41L18.76,8H16.76L17.12,6H15.12L14.76,8H10.76L11.12,6H9.12L8.76,8H6.76L6.41,10H8.41L7.71,14H5.71L5.35,16H7.35L7,18M10.41,10H14.41L13.71,14H9.71L10.41,10Z"/>
</svg>
